assets/icons/carriage/FAMILIE.svg

<svg width="34" height="34" viewBox="0 0 34 34" fill="none" xmlns="http://www.w3.org/2000/svg">
<g clip-path="url(#clip0_186_2)">
<rect width="34" height="34" rx="17" fill="#414141"/>
<path d="M24 13C24.2833 13 24.5208 12.9042 24.7125 12.7125C24.9042 12.5208 25 12.2833 25 12C25 11.7167 24.9042 11.4792 24.7125 11.2875C24.5208 11.0958 24.2833 11 24 11C23.7167 11 23.4792 11.0958 23.2875 11.2875C23.0958 11.4792 23 11.7167 23 12C23 12.2833 23.0958 12.5208 23.2875 12.7125C23.4792 12.9042 23.7167 13 24 13ZM24 15C23.15 15 22.4375 14.7125 21.8625 14.1375C21.2875 13.5625 21 12.85 21 12C21 11.1667 21.2875 10.4583 21.8625 9.875C22.4375 9.29167 23.15 9 24 9C24.8333 9 25.5417 9.29167 26.125 9.875C26.7083 10.4583 27 11.1667 27 12C27 12.85 26.7083 13.5625 26.125 14.1375C25.5417 14.7125 24.8333 15 24 15ZM17 12C17.4167 12 17.7708 11.8583 18.0625 11.575C18.3542 11.2917 18.5 10.9333 18.5 10.5C18.5 10.0833 18.3542 9.72917 18.0625 9.4375C17.7708 9.14583 17.4167 9 17 9C16.5667 9 16.2083 9.14583 15.925 9.4375C15.6417 9.72917 15.5 10.0833 15.5 10.5C15.5 10.9333 15.6417 11.2917 15.925 11.575C16.2083 11.8583 16.5667 12 17 12ZM17 14C16.0167 14 15.1875 13.6625 14.5125 12.9875C13.8375 12.3125 13.5 11.4833 13.5 10.5C13.5 9.53333 13.8375 8.70833 14.5125 8.025C15.1875 7.34167 16.0167 7 17 7C17.9667 7 18.7917 7.34167 19.475 8.025C20.1583 8.70833 20.5 9.53333 20.5 10.5C20.5 11.4833 20.1583 12.3125 19.475 12.9875C18.7917 13.6625 17.9667 14 17 14ZM13 18.375C13 18.875 13.2667 19.4583 13.8 20.125C14.3333 20.7917 15.4 21.85 17 23.3C18.5667 21.8833 19.625 20.8417 20.175 20.175C20.725 19.5083 21 18.9083 21 18.375C21 17.9917 20.875 17.6667 20.625 17.4C20.375 17.1333 20.0667 17 19.7 17C19.4667 17 19.2458 17.05 19.0375 17.15C18.8292 17.25 18.6583 17.3917 18.525 17.575L17.325 19H16.65L15.45 17.575C15.3167 17.3917 15.1458 17.25 14.9375 17.15C14.7292 17.05 14.5167 17 14.3 17C13.9167 17 13.6042 17.1333 13.3625 17.4C13.1208 17.6667 13 17.9917 13 18.375ZM11 18.375C11 17.4917 11.3 16.7083 11.9 16.025C12.5 15.3417 13.3 15 14.3 15C14.8167 15 15.3125 15.1167 15.7875 15.35C16.2625 15.5833 16.6667 15.9 17 16.3C17.3333 15.9 17.7333 15.5833 18.2 15.35C18.6667 15.1167 19.1667 15 19.7 15C20.7 15 21.5 15.3458 22.1 16.0375C22.7 16.7292 23 17.5083 23 18.375C23 19.2583 22.6792 20.1292 22.0375 20.9875C21.3958 21.8458 20.0833 23.1833 18.1 25L17 26L15.9 25C13.8833 23.1667 12.5625 21.825 11.9375 20.975C11.3125 20.125 11 19.2583 11 18.375ZM10 13C10.2833 13 10.5208 12.9042 10.7125 12.7125C10.9042 12.5208 11 12.2833 11 12C11 11.7167 10.9042 11.4792 10.7125 11.2875C10.5208 11.0958 10.2833 11 10 11C9.71667 11 9.47917 11.0958 9.2875 11.2875C9.09583 11.4792 9 11.7167 9 12C9 12.2833 9.09583 12.5208 9.2875 12.7125C9.47917 12.9042 9.71667 13 10 13ZM17.075 27V25H25V18H22.05V16H25C25.55 16 26.0208 16.1958 26.4125 16.5875C26.8042 16.9792 27 17.45 27 18V27H17.075ZM9 25H17.075V27H7V18C7 17.45 7.19167 16.9792 7.575 16.5875C7.95833 16.1958 8.43333 16 9 16H11.95V18H9V25ZM10 15C9.15 15 8.4375 14.7125 7.8625 14.1375C7.2875 13.5625 7 12.85 7 12C7 11.1667 7.2875 10.4583 7.8625 9.875C8.4375 9.29167 9.15 9 10 9C10.8333 9 11.5417 9.29167 12.125 9.875C12.7083 10.4583 13 11.1667 13 12C13 12.85 12.7083 13.5625 12.125 14.1375C11.5417 14.7125 10.8333 15 10 15Z" fill="white"/>
</g>
<defs>
<clipPath id="clip0_186_2">
<rect width="34" height="34" fill="white"/>
</clipPath>
</defs>
</svg>

<svg xmlns="http://www.w3.org/2000/svg" width="34" height="34" fill="none"><g clip-path="url(#a)"><rect width="34" height="34" fill="#414141" rx="17"/><path fill="#fff" d="M24 13c.283 0 .52-.096.712-.287A.968.968 0 0 0 25 12a.968.968 0 0 0-.288-.713A.968.968 0 0 0 24 11a.968.968 0 0 0-.712.287A.968.968 0 0 0 23 12c0 .283.096.52.288.713.191.191.429.287.712.287Zm0 2c-.85 0-1.563-.287-2.137-.863C21.288 13.563 21 12.85 21 12c0-.833.288-1.542.863-2.125S23.15 9 24 9c.833 0 1.542.292 2.125.875S27 11.167 27 12c0 .85-.292 1.563-.875 2.137-.583.575-1.292.863-2.125.863Zm-7-3c.417 0 .77-.142 1.063-.425.291-.283.437-.642.437-1.075 0-.417-.146-.77-.438-1.063A1.447 1.447 0 0 0 17 9c-.433 0-.792.146-1.075.438A1.468 1.468 0 0 0 15.5 10.5c0 .433.142.792.425 1.075.283.283.642.425 1.075.425Zm0 2c-.983 0-1.813-.338-2.488-1.012-.675-.675-1.012-1.505-1.012-2.488 0-.967.338-1.792 1.012-2.475C15.188 7.342 16.017 7 17 7c.967 0 1.792.342 2.475 1.025A3.372 3.372 0 0 1 20.5 10.5c0 .983-.342 1.813-1.025 2.488A3.393 3.393 0 0 1 17 14Zm-4 4.375c0 .5.267 1.083.8 1.75S15.4 21.85 17 23.3c1.567-1.417 2.625-2.458 3.175-3.125.55-.667.825-1.267.825-1.8 0-.383-.125-.708-.375-.975s-.558-.4-.925-.4c-.233 0-.454.05-.662.15-.209.1-.38.242-.513.425L17.325 19h-.675l-1.2-1.425a1.34 1.34 0 0 0-.512-.425c-.209-.1-.421-.15-.638-.15-.383 0-.696.133-.938.4a1.4 1.4 0 0 0-.362.975Zm-2 0c0-.883.3-1.667.9-2.35.6-.683 1.4-1.025 2.4-1.025.517 0 1.012.117 1.487.35.475.233.88.55 1.213.95.333-.4.733-.717 1.2-.95.467-.233.967-.35 1.5-.35 1 0 1.8.346 2.4 1.038.6.691.9 1.47.9 2.337 0 .883-.32 1.754-.962 2.613-.642.858-1.955 2.195-3.938 4.012L17 26l-1.1-1c-2.017-1.833-3.338-3.175-3.963-4.025-.624-.85-.937-1.717-.937-2.6ZM10 13c.283 0 .52-.096.713-.287A.968.968 0 0 0 11 12a.968.968 0 0 0-.287-.713A.968.968 0 0 0 10 11a.967.967 0 0 0-.713.287A.968.968 0 0 0 9 12c0 .283.096.52.287.713.192.191.43.287.713.287Zm7.075 14v-2H25v-7h-2.95v-2H25c.55 0 1.02.196 1.413.587.391.392.587.863.587 1.413v9h-9.925ZM9 25h8.075v2H7v-9c0-.55.192-1.02.575-1.413A1.914 1.914 0 0 1 9 16h2.95v2H9v7Zm1-10c-.85 0-1.563-.287-2.138-.863C7.287 13.563 7 12.85 7 12c0-.833.287-1.542.862-2.125S9.15 9 10 9c.833 0 1.542.292 2.125.875S13 11.167 13 12c0 .85-.292 1.563-.875 2.137-.583.575-1.292.863-2.125.863Z"/></g><defs><clipPath id="a"><path fill="#fff" d="M0 0h34v34H0z"/></clipPath></defs></svg>
